X: 20
T:Drimmin Dhoun Oge
T:Druim-fionn Donn Og
M:3/4
L:1/8
S:O'Farrell's Pocket Companion 1804-1810
R:Air
K:Bb
"Andantino"GF|D2 G2 GF|G2 A2 c2|d=e fe dc|A4 dB|A2 G2 GF|G3 A B2|A2 G2 FD|D6|
D2 G2 GF|G2 A2 c2|d=e fe dc|A4 fg|a2 gf =ed/4c/4|d3 =e f2|G2 G2 AG/4^F/4 |G4||
d2 g2 gf|g3 a b2|a2 g2 fd|d4 =e2|f3 g fd|f2 g2 a>g|fd cB AG|F4 dc|
A2 G2 GF|G2 A2 c2|d=e fe dc|A4 fg|a2 gf =ed/4c/4|d3 =e f>A|G4 {B}AG/4^F/4|G4||

